X:1
T:How Should I your True Love Know?
M:4/4
L:1/4
K:C
 A B cB/2-A/2| ^G A E2| c3/2 c/2 e d| c4| B c dc/2-B/2| e A E2| AA/2-B/2 c B|\
 A4|

